src/images/gas.svg

<svg width="24" height="22" viewBox="0 0 24 22" fill="none" xmlns="http://www.w3.org/2000/svg">
<rect x="1.74597" y="0.75" width="10.9495" height="19.9131" rx="1.25" stroke="#48494D" stroke-width="1.5"/>
<mask id="path-2-inside-1" fill="white">
<rect x="3.09686" y="3.0968" width="8.2583" height="7.22601" rx="1"/>
</mask>
<rect x="3.09686" y="3.0968" width="8.2583" height="7.22601" rx="1" stroke="#48494D" stroke-width="3" mask="url(#path-2-inside-1)"/>
<path d="M12.9474 10.834V10.834C14.1306 10.834 15.0897 11.7931 15.0897 12.9763V15.6395C15.0897 16.985 15.6253 19.1298 17.589 18.9072C19.5527 18.6846 19.9098 16.6819 19.9098 15.255C19.9098 13.8282 19.1957 10.6418 19.3742 7.95073C19.5527 5.25966 21.1594 2.95304 22.4091 1.99194" stroke="#48494D" stroke-width="1.5" stroke-linecap="round" stroke-linejoin="round"/>
<rect x="0.497979" y="20.506" width="13.4454" height="0.995959" rx="0.497979" fill="#48494D" stroke="#48494D" stroke-width="0.995959"/>
<path d="M20.4181 5.47778V5.47778C21.3327 5.70145 21.9439 6.56319 21.8527 7.50029L21.7677 8.37356C21.6801 9.27332 20.9237 9.9596 20.0197 9.9596V9.9596" stroke="#48494D" stroke-width="1.5"/>
</svg>

<svg width="24" height="22" fill="none" xmlns="http://www.w3.org/2000/svg"><rect x="1.75" y=".75" width="10.95" height="19.91" rx="1.25" stroke="#48494D" stroke-width="1.5"/><mask id="a" fill="#fff"><rect x="3.1" y="3.1" width="8.26" height="7.23" rx="1"/></mask><rect x="3.1" y="3.1" width="8.26" height="7.23" rx="1" stroke="#48494D" stroke-width="3" mask="url(#a)"/><path d="M12.95 10.83v0c1.18 0 2.14.96 2.14 2.15v2.66c0 1.34.54 3.49 2.5 3.27 1.96-.23 2.32-2.23 2.32-3.65 0-1.43-.71-4.62-.54-7.3.18-2.7 1.79-5 3.04-5.97" stroke="#48494D" stroke-width="1.5" stroke-linecap="round" stroke-linejoin="round"/><rect x=".5" y="20.51" width="13.45" height="1" rx=".5" fill="#48494D" stroke="#48494D"/><path d="M20.42 5.48a1.9 1.9 0 0 1 1.43 2.02l-.08.87c-.09.9-.85 1.59-1.75 1.59" stroke="#48494D" stroke-width="1.5"/></svg>
